X: 1
T: Sheguiandah Bay
R: Waltz
C: Don Pettigrew
D: from Kinnon Beaton "Saturday Night Lively"
Z: Terry Traub 6-26-03
R: Waltz
M: 3/4
K: D
L: 1/4
(3A/B/c/ |\
"D"d A F | "D7"F E D | "G"B, A, G, | "D" A,2 D/E/ |\
"D"F E D | "Bm"d A F | "Em"E2-E/F/ | "A"E2 (3A/B/c/ |
"D"d A F | "D7"F E D | "G"B, A, G, | "D" A,2 D/E/ |\
"D"F d F | "A"E F E | "D"D3- | "D"D2 :|
|: F/G/ |\
"D"A d f | "D"a f d | "G"d B G | "D"A2 F/G/ |\
"D"A d f | "D"a f d | "Em"e-e/^d/e/f/ | "A"e2F/G/ |
"D"A d f | "D"a f d | "G"d B G | "D"A2 d/e/ |\
"D"f a  f | "A7" g e c | "D"d-d/c/d/e/ | "D"d2 :|
